X:10
T:An Phis Fhliuch
T:Wet Pussy, The
T:Choice Wife, The
T:Perfect Wife, The
T:Virgin Mary
T:O'Farrell's Welcome to Limerick
T:Boy in the Bush, The
R:slip jig
D:Willie Clancy: The Pipering of Willie Clancy 2.
D:Davy Spillane: Atlantic Bridge.
D:Planxty.
D:Noel Hill: The Irish Concertina.
D:Paul O'Shaughnessy & Paul McGrattan: Within a Mile from Dublin
Z:id:hn-slipjig-10
M:9/8
K:Dmix
FGA AFA c2A|BAG FAF GED|FGA AFA d2A|dfe dcA GED:|
|:d^cd efd =c2A|~d3 faf ~g3|aba ged c2A|BAG FAF GED:|
|:FGA AFd AFd|AFd AFA GED|FGA AFA c2A|BAG FAF GED:|
|:~D3 ~D3 c3|c2B c2A GEA|~D3 ~D3 d2A|dfe dcA GED:|
|:d^cd efd =c2A|dB/^c/d faf ~g3|aba ged c2A|BAG F/G/AF GED:|
<end>
<start>
